X: 11100
T: UNCLE GEORGE'S REEL
C: Bob McQuillen 9 June '01
B: Bob's Note Book 11 #100
R: reel
Z: 2019 John Chambers <jc:trillian.mit.edu>
M: C
L: 1/8
K: G
DE \
| G2BG EDGA | BGBd edBG | F2AG FEAB | cdeg fdec |
| B2BG EDGA | BGBd edBG | FGAB cedc | BGGF G2  :|
|: Bd \
| g2gd edBd | egdB GBAG | F2FD EDcB | ABcd edef |
| g2gd edBd | egdB GBAG | FGAB cDFA | AGGF G2  :|
%%begintext align
%% George McBride is Lea's
%% husband and Jane McBride Orzechowski's brother.
%% Although he doesn't dance much, he sure loves the music,
%% and since his children are musicians, he sure has
%% plenty to listen to. I hope you like it when they play
%% you this tune, George!
%%endtext

%%sep 1 1 500

%%sep 1 1 500

